X: 235
T: Miss Ramsay of Craigleith's Favorite
C: William Shepherd (17??-1812)
R: jig
Q: "Slow"
B: William Shepherd "2nd Collection" 1800 p.23 #5
F: http://imslp.org/wiki/File:PMLP73094-Shepherd_Collections_HMT.pdf
Z: 2012 John Chambers <jc:trillian.mit.edu>
M: 6/8
L: 1/8
K: Bb
|:\
f>dB G>BB | F>TBB D>TBB | E>GB c>de | Tc>dB c>AF |\
f>dB G>BB | F>TBB D>TBB | E>GB c>de | F>cA TB2 :|
f>dd Td>ef | g>ab fdB | g>ec Tc>de | G>cB A>GF |\
f>dd Td>ef | g>ab fdB | e>ge c>de | F>GA B3 |
f>dd Td>ef | g>ab f>dB | g>ec Tc>de | G>cB A>GF |\
G<TBB F<TBB | E<TBB D<TBB | G<TBB c<de | F<cA TB2 |]
